icons/wifi-line.svg

<svg xmlns="http://www.w3.org/2000/svg" width="24" height="24" fill="none"><g clip-path="url(#a)"><g><path fill="#121212" d="M0.690002 6.99702C3.88909 4.40534 7.88285 2.99393 12 3.00002C16.285 3.00002 20.22 4.49702 23.31 6.99702L22.054 8.55302C19.2102 6.24909 15.6599 4.99446 12 5.00002C8.191 5.00002 4.694 6.33002 1.946 8.55302L0.690002 6.99702ZM3.831 10.887C6.1416 9.01502 9.02624 7.99556 12 8.00002C15.094 8.00002 17.936 9.08102 20.169 10.886L18.912 12.442C16.9568 10.8584 14.5161 9.99603 12 10C9.382 10 6.977 10.915 5.088 12.442L3.831 10.886V10.887ZM6.973 14.777C8.39485 13.6249 10.17 12.9974 12 13C13.904 13 15.653 13.665 17.027 14.776L15.77 16.332C14.7036 15.4682 13.3723 14.9979 12 15C10.572 15 9.26 15.499 8.23 16.332L6.973 14.776V14.777ZM10.115 18.667C10.6481 18.2347 11.3137 17.9992 12 18C12.714 18 13.37 18.25 13.885 18.666L12 21L10.115 18.666V18.667Z"/></g></g><defs><clipPath id="a"><rect width="24" height="24" fill="white"/></clipPath></defs></svg>

<svg width="24" height="24" fill="none" xmlns="http://www.w3.org/2000/svg"><g clip-path="url(#a)"><path d="M.69 6.997A17.925 17.925 0 0 1 12 3c4.285 0 8.22 1.497 11.31 3.997l-1.256 1.556A15.933 15.933 0 0 0 12 5C8.191 5 4.694 6.33 1.946 8.553L.69 6.997Zm3.141 3.89A12.946 12.946 0 0 1 12 8a12.95 12.95 0 0 1 8.169 2.886l-1.257 1.556A10.955 10.955 0 0 0 12 10c-2.618 0-5.023.915-6.912 2.442l-1.257-1.556v.001Zm3.142 3.89A7.967 7.967 0 0 1 12 13c1.904 0 3.653.665 5.027 1.776l-1.257 1.556A5.975 5.975 0 0 0 12 15c-1.428 0-2.74.499-3.77 1.332l-1.257-1.556v.001Zm3.142 3.89A2.987 2.987 0 0 1 12 18c.714 0 1.37.25 1.885.666L12 21l-1.885-2.334v.001Z" /></g><defs><clipPath id="a"><path fill="#fff" d="M0 0h24v24H0z"/></clipPath></defs></svg>
